X:1
T:Hermon, CM
T:Hermon, CM
T:Lowell Mason, 1832
T:Public Domain Courtesy of the Cyber Hymnal™
C:Lowell Mason, 1832
Z:Public Domain
Z:Courtesy of the Cyber Hymnal™
%%score ( 1 2 ) ( 3 4 )
L:1/8
M:none
K:Ab
V:1 treble 
V:2 treble 
V:3 bass 
V:4 bass 
V:1
 [CE]4 [A,C]2 | [B,D]2 [CE]2 [CA]2 | [DF]2 [FA]2 [CE]2- | [CE]4 [EA]2 | %4
 [EA]2 [EA]2 (G3 A B4) [EG]4 | [EA]8 [Ec]4 | [Ec]2 [Ec]2 [Fc]4 [Fc]4 | %7
 [Fc]2 [FB]2 [EB]2 [EG]2 [EA]2 [CE]2 | [DF]8 [DF]4 | [CE]8 |] %10
V:2
 x6 | x6 | x6 | x6 | x4 E8 x4 | x12 | x12 | x12 | x12 | x8 |] %10
V:3
 [A,,A,]4 [A,,A,]2 | [A,,A,]2 [A,,A,]2 [A,,A,]2 | [A,,A,]2 [A,,A,]2 [A,,A,]2- | [A,,A,]4 [A,,C]2 | %4
 [C,E]2 [A,,C]2 (B,3 C D4) [E,B,]4 | [A,,C]8 A,4 | A,2 A,2 [F,A,]4 [F,A,]4 | %7
 [=D,A,]2 [D,A,]2 [E,G,]2 [_D,B,]2 [C,A,]2 [A,,A,]2 | [D,A,]8 [D,A,]4 | [A,,A,]8 |] %10
V:4
 x6 | x6 | x6 | x6 | x4 E,8 x4 | x8 A,4 | A,2 A,2 x8 | x12 | x12 | x8 |] %10

